**kern	**text
*clefG2	*
*k[b-e-a-]	*
*M4/4	*
*MM165	*
=1	=1
2r	.
4r	.
4f'	せ
=2	=2
2.cc	か
8fL	い
8fJ	で
=3	=3
4e-	え
8r	.
8e-	い
4f	ち
8fL	ば
8gJ	ん
=4	=4
4a-	お
4g	ひ
4f	め
4e-	さ
=5	=5
4cc	ま
4r	.
4e-	そ
4f	お
=6	=6
2cc	ゆ
4f	う
4f	あ
=7	=7
4e-	つ
4f	か
4f	い
8r	.
8f	こ
=8	=8
2f	こ
2a-	ろ
=9	=9
4.cc	え
8bn	え
4ee-	て
[4ee-	え
=10	=10
1ee-_	.
=11	=11
4ee-]	.
4r	.
2r	.
=12	=12
4r	.
8e-L	よ
8fJ	ね
2r	.
=13	=13
1r	.
=14	=14
1r	.
=15	=15
1r	.
=16	=16
1r	.
=17	=17
1r	.
=18	=18
1r	.
=19	=19
1r	.
=20	=20
4r	.
8cL	そ
8e-J	の
8f	い
4f	ち
8e-	い
=21	=21
4e-	つ
8cL	も
[8e-J	と
8e-L]	.
8cJ	ち
4e-	が
=22	=22
4c	う
4e-	か
8fL	み
8e-	が
8e-	た
[8fJ	に
=23	=23
4f]	.
4a-	き
8cc	が
4b-	つ
[8a-	く
=24	=24
8a-]	.
4.f	こ
4e-	と
8r	.
8c	そ
=25	=25
8e-L	の
8gJ	に
8r	.
[8e-	ちゃ
8e-]	.
4c	ん
[8e-	と
=26	=26
8e-]	.
4f	く
8e-	つ
4a-	ま
8fL	で
[8ccJ	み
=27	=27
8cc]	.
4b-	る
[8a-	こ
8a-L]	.
8fJ	と
8r	.
8e-	い
=28	=28
8cL	い
8e-J	ね
4r	.
8cL	そ
8f	の
8g	さ
8a-J	ん
=29	=29
8r	.
8cL	わ
8e-	た
8e-J	し
8e-L	の
8c	ひ
8e-	と
8cJ	こ
=30	=30
8e-L	と
8cJ	に
4B-	わ
8r	.
8e-	み
8r	.
8c	つ
=31	=31
8e-L	の
8c	こ
8e-	と
8fJ	ば
4f	で
8fL	へ
8fJ	ん
=32	=32
8bnL	じ
8b-X	す
8a-	る
8fJ	こ
4e-	と
4r	.
=33	=33
4c	わ
4c	か
4B-	あ
4e-	た
=34	=34
4c	ら
8r	.
8e-	み
8fL	ぎ
8f	て
8f	が
8fJ	お
=35	=35
8e-L	る
8e-	す
8e-	な
8e-J	の
4c	お
8e-L	な
8cJ	ん
=36	=36
8e-L	と
8fJ	か
4a-	し
4f	て
4r	.
=37	=37
4r	.
4f	べ
4e-	つ
4f	に
=38	=38
4r	.
4f	わ
8a-L	が
8f	ま
8f	ま
8e-J	な
=39	=39
8e-	ん
4c	て
[8e-	い
8e-L]	.
8f	い
8f	て
8e-J	な
=40	=40
8fL	い
8f	ん
8e-	だ
8cJ	か
2B-	ら
=41	=41
4r	.
4f	き
4e-	み
4f	に
=42	=42
4r	.
4a-	こ
4a-	こ
4f	ろ
=43	=43
4bn	か
4b-X	ら
4a-	お
4f	も
=44	=44
4e-	お
4c	て
8e-L	ほ
8e-J	し
4e-	い
=45	=45
4e-'	の
8e-L	か
[8e-J	わ
8e-L]	.
8e-J	い
4e-'	い
=46	=46
4f	て
4f	せ
[2cc	か
=47	=47
4cc]	.
8fL	い
8fJ	で
4e-	え
8r	.
8e-	い
=48	=48
4f	ち
8fL	ば
8gJ	ん
4a-	お
4g	ひ
=49	=49
4f	め
4e-	さ
4cc	ま
4r	.
=50	=50
4e-	き
4f	が
4.cc	つ
8cc	い
=51	=51
4f	て
4f	ね
4e-	え
4f	ね
=52	=52
4f	え
8r	.
8e-	ま
8fL	た
8f	せ
8f	る
8a-J	な
=53	=53
8a-L	ん
8a-	て
8cc	ろ
8ccJ	ん
4.cc	が
8bn	い
=54	=54
4e-'	よ
4f	わ
[2cc	た
=55	=55
4cc]	.
8fL	し
8fJ	お
4e-	お
8r	.
8e-	だ
=56	=56
8fL	れ
8e-	だ
8f	と
8gJ	お
2a-	も
=57	=57
4f	て
4e-	る
4cc	の
4r	.
=58	=58
4e-	も
4f	お
[2cc	な
=59	=59
8ccL]	.
8f	ん
8f	だ
[8e-J	か
4e-]	.
4r	.
=60	=60
4r	.
8r	.
8e-	あ
8fL	ま
8f	い
8f	も
8a-J	の
=61	=61
4.a-	が
8cc	た
4.cc	べ
8bn	た
=62	=62
2.ee-	い
8r	.
8c	い
=63	=63
8e-L	ま
8c	す
8c	ぐ
8e-J	に
4f'	よ
4r	.
==	==
*-	*-
